svg/24/cart-remove.svg

<svg width="24" height="24" viewBox="0 0 24 24" fill="currentColor" xmlns="http://www.w3.org/2000/svg"><path d="M1 4.75C1 4.33579 1.33579 4 1.75 4H3.07595C3.78892 4 4.43061 4.43253 4.69811 5.09341L8.18941 13.719C8.38049 14.1911 8.83883 14.5 9.3481 14.5H15.6235C16.1419 14.5 16.6059 14.1807 16.7908 13.697L19.5495 6.48215C19.6974 6.09525 20.131 5.90153 20.5179 6.04946C20.9048 6.19739 21.0985 6.63096 20.9505 7.01785L18.1919 14.2327C17.7847 15.2977 16.7631 16 15.6235 16H9.3481C8.22772 16 7.21935 15.3203 6.79899 14.2818L3.30769 5.6562C3.26947 5.56179 3.1778 5.5 3.07595 5.5H1.75C1.33579 5.5 1 5.16421 1 4.75Z"/><path d="M8.5 17C9.32843 17 10 17.6716 10 18.5C10 19.3284 9.32843 20 8.5 20C7.67157 20 7 19.3284 7 18.5C7 17.6716 7.67157 17 8.5 17Z"/><path d="M18 18.5C18 17.6716 17.3284 17 16.5 17C15.6716 17 15 17.6716 15 18.5C15 19.3284 15.6716 20 16.5 20C17.3284 20 18 19.3284 18 18.5Z"/><path d="M15.25 7.75C15.6642 7.75 16 8.08579 16 8.5C16 8.91421 15.6642 9.25 15.25 9.25L9.75 9.25C9.33579 9.25 9 8.91421 9 8.5C9 8.08579 9.33579 7.75 9.75 7.75L15.25 7.75Z"/></svg>

<svg xmlns="http://www.w3.org/2000/svg" width="24" height="24" fill="currentColor" viewBox="0 0 24 24">
  <path d="M1 4.75A.75.75 0 0 1 1.75 4h1.326a1.75 1.75 0 0 1 1.622 1.093L8.19 13.72c.191.472.65.781 1.16.781h6.274c.519 0 .983-.32 1.168-.803l2.758-7.215a.75.75 0 1 1 1.402.536l-2.76 7.215A2.75 2.75 0 0 1 15.625 16H9.348A2.75 2.75 0 0 1 6.8 14.282L3.308 5.656a.25.25 0 0 0-.232-.156H1.75A.75.75 0 0 1 1 4.75ZM8.5 17a1.5 1.5 0 1 1 0 3 1.5 1.5 0 0 1 0-3Zm9.5 1.5a1.5 1.5 0 1 0-3 0 1.5 1.5 0 0 0 3 0Z"/>
  <path d="M15.25 7.75a.75.75 0 0 1 0 1.5h-5.5a.75.75 0 0 1 0-1.5h5.5Z"/>
</svg>
